X:1
T:Foster, CMD
T:Foster, CMD
T:Percy S. Foster, 1901
T:Public Domain Courtesy of the Cyber Hymnal™
C:Percy S. Foster, 1901
Z:Public Domain
Z:Courtesy of the Cyber Hymnal™
%%score ( 1 2 ) ( 3 4 )
L:1/8
Q:1/4=105
M:6/8
K:Db
V:1 treble 
V:2 treble 
V:3 bass 
V:4 bass 
V:1
 [FA] | [Fd]2 [Ac] [GB]2 [FA] | [GB]2 [FA] [DF]2 [FA] | [FA]2 [EG] ([EG][DF])[CE] | %4
 [DF]3- [DF]2 [FA] | [Fd]2 [Ac] [GB]2 [FA] | [GB]2 [FA] [DF]2 [FA] | [FA]2 [EG] ([EG][DF])[CE] | %8
 D3- D2 D | (DG)[GB] [Gd]2 [Gd] | [Fd]2 [FA] [FA]2 [FA] | [E=G]2 [GB] (d>c)[GB] | %12
 [Gc]3- [Gc]2 [GA] | [Fd]2 [Ac] [GB]2 [FA] | [GB]2 [FA] [DF]2 [FA] | [GA]2 [GA] (A[=GB])[_Gc] | %16
 d3- [Fd]2 |] %17
V:2
 x | x6 | x6 | x6 | x6 | x6 | x6 | x6 | D3- D2 D | D2 x4 | x6 | x3 =G2 x | x6 | x6 | x6 | x3 A x2 | %16
 F2 G x2 |] %17
V:3
 [D,A,] | [D,A,]2 [D,D] [D,D]2 [D,D] | [D,D]2 [D,D] [D,A,]2 [D,A,] | %3
 [A,,C]2 [A,,A,] [A,,A,]2 [A,,A,] | [D,A,]3- [D,A,]2 [D,D] | [D,A,]2 [D,D] [D,D]2 [D,D] | %6
 [D,D]2 [D,D] [D,A,]2 [D,D] | [A,,C]2 [A,,C] [A,,A,]2 [A,,G,] | [D,F,]3- [D,F,]2 [D,F,] | %9
 [G,B,]2 [G,D] [G,B,]2 [G,B,] | [D,A,]2 [D,D] [D,D]2 [D,D] | [E,D]2 [E,D] (B,>E)[E,E] | %12
 [A,E]3- [A,E]2 [A,C] | [D,D]2 [D,D] [D,D]2 [D,D] | [D,D]2 [D,D] [D,A,]2 [D,D] | %15
 [A,C]2 [A,E] (CD)[A,,E] | (D2 B, [D,A,]2) |] %17
V:4
 x | x6 | x6 | x6 | x6 | x6 | x6 | x6 | x6 | x6 | x6 | x3 E,2 x | x6 | x6 | x6 | x3 A,2 x | %16
 D,3- x2 |] %17

